shader_type spatial;

#include "res://000_shader_lib/card_template/card_template.gdshaderinc"
#include "res://000_shader_lib/pencil/fill.gdshaderinc"


void fragment() {
	// Called for every pixel the material is visible on.
}
